components/Icon/svg/flag.svg

<svg width="32" height="32" viewBox="0 0 32 32" fill="none" xmlns="http://www.w3.org/2000/svg">
<path fill-rule="evenodd" clip-rule="evenodd" d="M17.4173 15.6015C19.0751 17.1937 20.9526 18.9968 24.5855 18.9968L24.5888 19C28.2252 19 30.1027 17.195 31.7595 15.6022C31.9127 15.4533 32 15.2523 32 15.0417V3.95833C32 3.6385 31.7991 3.35033 31.4911 3.22683C31.1831 3.10333 30.829 3.17142 30.5935 3.39783C28.9565 4.97325 27.5401 6.33333 24.5888 6.33333C21.6375 6.33333 20.2227 4.97325 18.584 3.39783L18.5792 3.39323C16.922 1.80152 15.0462 0 11.4133 0C7.77684 0 5.89933 1.805 4.24251 3.39783C3.92136 3.70658 3.92136 4.2085 4.24251 4.51725C4.56366 4.826 5.08574 4.826 5.4069 4.51725C7.04395 2.94183 8.46032 1.58175 11.4116 1.58175C14.3629 1.58175 15.7777 2.94183 17.4164 4.51725L17.4189 4.5197C19.0768 6.11194 20.9542 7.91508 24.5871 7.91508C27.2502 7.91508 28.9696 6.94608 30.3514 5.80133V14.7123C28.8115 16.1864 27.3935 17.4151 24.5871 17.4151C21.6358 17.4151 20.2211 16.055 18.5824 14.4796L18.5776 14.475C16.9203 12.8833 15.0446 11.0817 11.4116 11.0817C7.77519 11.0817 5.89768 12.8868 4.24086 14.4796C3.91971 14.7883 3.91971 15.2902 4.24086 15.599C4.56202 15.9078 5.0841 15.9078 5.40525 15.599C7.04231 14.0236 8.45867 12.6635 11.41 12.6635C14.3613 12.6635 15.776 14.0236 17.4147 15.599L17.4173 15.6015ZM1 31.1944C1 31.6391 1.448 32 2 32C2.552 32 3 31.6391 3 31.1944V3.80556C3 3.36089 2.552 3 2 3C1.448 3 1 3.36089 1 3.80556V31.1944Z" fill="currentColor"/>
</svg>

<svg xmlns="http://www.w3.org/2000/svg" width="32" height="32" viewBox="0 0 32 32">
  <path fill="currentColor" fill-rule="evenodd" d="M17.417 15.601c1.658 1.593 3.536 3.396 7.168 3.396l.004.003c3.636 0 5.514-1.805 7.17-3.398a.782.782 0 0 0 .241-.56V3.958a.79.79 0 0 0-.509-.731.846.846 0 0 0-.898.17c-1.637 1.576-3.053 2.936-6.004 2.936-2.951 0-4.366-1.36-6.005-2.935l-.005-.005C16.922 1.802 15.046 0 11.413 0 7.777 0 5.9 1.805 4.243 3.398a.77.77 0 0 0 0 1.12.848.848 0 0 0 1.164 0c1.637-1.576 3.053-2.936 6.005-2.936 2.95 0 4.366 1.36 6.004 2.935l.003.003c1.658 1.592 3.535 3.395 7.168 3.395 2.663 0 4.383-.969 5.764-2.114v8.911c-1.54 1.474-2.957 2.703-5.764 2.703-2.951 0-4.366-1.36-6.005-2.935l-.004-.005c-1.658-1.592-3.533-3.393-7.166-3.393-3.637 0-5.514 1.805-7.171 3.398a.77.77 0 0 0 0 1.119.848.848 0 0 0 1.164 0c1.637-1.575 3.054-2.935 6.005-2.935s4.366 1.36 6.005 2.935l.002.002ZM1 31.194c0 .445.448.806 1 .806s1-.36 1-.806V3.806C3 3.36 2.552 3 2 3s-1 .36-1 .806v27.388Z" />
</svg>
